!!!OTL: Yenghongjunge
!!!ARE: Asia, China,ÿZhejiang Chunan
!! III, 623
!!!SCT: C1906
!!!YEM: Copyright 1995, estate of Helmut Schaffrath.
**kern
*ICvox
*Ivox
*M2/4
*k[f#]
*G:
{4dd
8b
8a
=1
4dd
8b
8a
=2
8b
4g
8b
=3
2a}
=4
{8.dd
16ee
8dd
8b
=5
4.a
8b
=6
8.g
16a
8g
8e
=7
2d}
=8
{4g
8dd
8b
=9
8a
8b
8a
8g
=10
8.e
16d
8e
8g
=11
4.d}
{8e
=12
4g
8e
8g
=13
8.a
16b
8a
8g
=14
8e
8d
8e
8B
=15
2d}
=16
{4.b
8dd
=17
4b
4dd
=18
4ee
4b
=19
4dd
4dd}
=20
{8.dd
16ee
8dd
8b
=21
4.a
8b
=22
8.g
16a
8g
8e
=23
2d}
=24
{4g
8e
8g
=25
8.a
16b
8a
8g
=26
8.e
16d
8e
8B
=27
2d}
==
!!!AGN: Xiaodiao
!!!AMT: simple duple
!!!AIN: vox
!!!EED: Helmut Schaffrath
!!!EEV: 1.0
*-
